dist/img/svg/media__item__logo--2--mob.svg

<svg width="67" height="24" viewBox="0 0 67 24" fill="none" xmlns="http://www.w3.org/2000/svg">
<g clip-path="url(#clip0_7202_31317)">
<path fill-rule="evenodd" clip-rule="evenodd" d="M66.1332 0C65.778 0.744156 65.4744 1.39993 65.1534 2.04733C63.675 5.02038 62.2098 7.99938 60.7008 10.9563C60.33 11.6825 60.318 12.2906 60.693 13.0276C62.3994 16.3781 64.0566 19.7536 65.7282 23.1209C65.8548 23.3777 65.964 23.6452 66.1242 24H0V0H66.1332Z" fill="#2A2A2A"/>
<path d="M12.3476 18.6097L9.32466 14.4118H8.7348V18.6097H5.39844V5.40039H10.615C12.0527 5.40039 13.2079 5.75488 14.0803 6.46383C14.9651 7.17285 15.4259 8.26737 15.4628 9.74751C15.4628 12.0859 14.6087 13.5287 12.9006 14.076L16.4582 18.6097H12.3476ZM8.7348 11.5386H10.6702C11.3215 11.5386 11.7824 11.2898 12.0527 10.7923C12.323 10.2824 12.323 9.77859 12.0527 9.28107C11.7824 8.77113 11.3215 8.51613 10.6702 8.51613H8.7348V11.5386Z" fill="white"/>
<path d="M26.8846 9.42962C26.8723 9.79034 26.7495 10.1821 26.516 10.605C26.2948 11.0279 25.9692 11.3513 25.539 11.5752C26.3378 11.9856 26.8723 12.5329 27.1427 13.217C27.4131 13.9011 27.4929 14.5603 27.3823 15.1947C27.0259 17.4709 25.4776 18.609 22.7373 18.609H17.4102V5.39966H22.6451C23.9231 5.39966 24.9553 5.76658 25.7418 6.50042C26.5405 7.22186 26.9215 8.19824 26.8846 9.42962ZM20.728 10.5677H22.6451C23.1489 10.5677 23.5053 10.3749 23.7142 9.9893C23.9354 9.59132 23.9415 9.19952 23.7326 8.8139C23.5237 8.41592 23.1612 8.2169 22.6451 8.2169H20.728V10.5677ZM20.728 15.6798H22.6451C23.2718 15.6798 23.7081 15.4559 23.9538 15.0081C24.2119 14.5479 24.2119 14.0939 23.9538 13.6461C23.6958 13.1983 23.2595 12.9745 22.6451 12.9745H20.728V15.6798Z" fill="white"/>
<path d="M28.4297 16.8553C28.4297 16.3454 28.6079 15.91 28.9643 15.5493C29.3206 15.1887 29.7508 15.0083 30.2546 15.0083C30.7584 15.0083 31.1885 15.1887 31.5449 15.5493C31.9135 15.91 32.0978 16.3454 32.0978 16.8553C32.0978 17.3778 31.9135 17.8255 31.5449 18.1987C31.1885 18.5594 30.7584 18.7397 30.2546 18.7397C29.7508 18.7397 29.3206 18.5594 28.9643 18.1987C28.6079 17.8255 28.4297 17.3778 28.4297 16.8553Z" fill="white"/>
<path d="M40.6367 18.6092L37.6137 14.4113H37.0238V18.6092H33.6875V5.3999H38.904C40.3417 5.3999 41.4969 5.75439 42.3694 6.46334C43.2541 7.17236 43.7149 8.26688 43.7518 9.74702C43.7518 12.0854 42.8978 13.5282 41.1897 14.0755L44.7472 18.6092H40.6367ZM37.0238 11.5381H38.9593C39.6106 11.5381 40.0714 11.2893 40.3417 10.7918C40.6121 10.2819 40.6121 9.7781 40.3417 9.28058C40.0714 8.77064 39.6106 8.51564 38.9593 8.51564H37.0238V11.5381Z" fill="white"/>
<path d="M48.9614 5.3999V14.1874C48.9614 14.5855 49.0904 14.9275 49.3485 15.2136C49.6065 15.4872 49.9137 15.6551 50.2701 15.7173C50.6388 15.7795 51.0074 15.7795 51.3761 15.7173C51.7448 15.6551 52.0581 15.4872 52.3161 15.2136C52.5742 14.9275 52.7033 14.5855 52.7033 14.1874V5.3999H56.0396V14.1874C56.0396 14.8591 55.9167 15.4748 55.6709 16.0345C55.4375 16.5817 55.118 17.0358 54.7124 17.3965C54.3069 17.7572 53.84 18.0681 53.3115 18.3293C52.7954 18.5781 52.2486 18.7273 51.671 18.7771C51.1058 18.8268 50.5343 18.8268 49.9568 18.7771C49.3792 18.7273 48.8262 18.5781 48.2978 18.3293C47.7817 18.0681 47.3208 17.7572 46.9153 17.3965C46.5221 17.0358 46.2087 16.5817 45.9752 16.0345C45.7418 15.4748 45.625 14.8591 45.625 14.1874V5.3999H48.9614Z" fill="white"/>
</g>
<defs>
<clipPath id="clip0_7202_31317">
<rect width="66.1332" height="24" fill="white"/>
</clipPath>
</defs>
</svg>

<svg width="67" height="24" viewBox="0 0 67 24" fill="none" xmlns="http://www.w3.org/2000/svg"><g clip-path="url(#clip0_7202_31317)"><path fill-rule="evenodd" clip-rule="evenodd" d="M66.133 0c-.355.744-.659 1.4-.98 2.047C63.675 5.02 62.21 8 60.701 10.957c-.371.725-.383 1.334-.008 2.07 1.706 3.351 3.364 6.727 5.035 10.094.127.257.236.524.396.879H0V0h66.133z" fill="#2A2A2A"/><path d="M12.348 18.61l-3.023-4.198h-.59v4.198H5.398V5.4h5.217c1.438 0 2.593.355 3.465 1.064.885.709 1.346 1.803 1.383 3.284 0 2.338-.854 3.78-2.562 4.328l3.557 4.534h-4.11zm-3.613-7.071h1.935c.652 0 1.112-.25 1.383-.747.27-.51.27-1.013 0-1.51-.27-.51-.732-.766-1.383-.766H8.735v3.023zm18.15-2.109c-.013.36-.136.752-.369 1.175a2.245 2.245 0 01-.977.97c.799.41 1.333.958 1.604 1.642.27.684.35 1.343.24 1.978-.357 2.276-1.905 3.414-4.646 3.414H17.41V5.399h5.235c1.278 0 2.31.368 3.097 1.101.799.722 1.18 1.698 1.143 2.93zm-6.157 1.138h1.917c.504 0 .86-.193 1.07-.579.22-.398.227-.79.018-1.175-.21-.398-.572-.597-1.088-.597h-1.917v2.35zm0 5.112h1.917c.627 0 1.063-.224 1.309-.672.258-.46.258-.914 0-1.362-.258-.448-.695-.671-1.309-.671h-1.917v2.705zm7.702 1.175c0-.51.178-.945.534-1.306.357-.36.787-.54 1.29-.54.504 0 .934.18 1.29.54.37.361.554.796.554 1.306 0 .523-.184.97-.553 1.344-.357.36-.787.54-1.29.54-.504 0-.934-.18-1.29-.54a1.876 1.876 0 01-.535-1.344zm12.207 1.755l-3.023-4.199h-.59v4.198h-3.337V5.4h5.217c1.438 0 2.593.355 3.465 1.064.885.71 1.346 1.804 1.383 3.284 0 2.338-.854 3.781-2.562 4.329l3.557 4.533h-4.11zm-3.613-7.072h1.935c.652 0 1.112-.249 1.383-.746.27-.51.27-1.014 0-1.511-.27-.51-.731-.765-1.383-.765h-1.935v3.022zM48.961 5.4v8.787c0 .399.13.74.388 1.027.258.273.565.441.921.503a3.26 3.26 0 001.106 0c.369-.062.682-.23.94-.503a1.48 1.48 0 00.387-1.027V5.4h3.337v8.787c0 .672-.123 1.288-.37 1.848a3.77 3.77 0 01-.958 1.361 6.256 6.256 0 01-1.4.933 4.67 4.67 0 01-1.641.448c-.565.05-1.137.05-1.714 0a4.841 4.841 0 01-1.66-.448 6.449 6.449 0 01-1.382-.933 3.887 3.887 0 01-.94-1.361 4.753 4.753 0 01-.35-1.848V5.4h3.336z" fill="#fff"/></g><defs><clipPath id="clip0_7202_31317"><path fill="#fff" d="M0 0h66.133v24H0z"/></clipPath></defs></svg>
